icons/mobile/24/svg/pin-24.svg

<svg width="24" height="24" viewBox="0 0 24 24" fill="none" xmlns="http://www.w3.org/2000/svg">
<path fill-rule="evenodd" clip-rule="evenodd" d="M10.9365 3.16216C11.3299 2.88207 11.8758 2.97396 12.1562 3.36724C12.4366 3.76076 12.3456 4.30748 11.9521 4.58795C11.7583 4.72603 11.5684 4.86431 11.3827 5.00298L14.3388 7.95611L17.5771 8.24127L17.7831 8.26666C18.8016 8.42798 19.5863 9.10047 19.9863 9.91119C20.3859 10.7216 20.4383 11.7552 19.8847 12.626L19.7656 12.7979C18.9256 13.9172 18.1069 14.8451 17.3271 15.6768L17.3163 15.6885L17.3056 15.6993L17.1308 15.8731L21.745 20.5079C22.0856 20.8502 22.0851 21.4043 21.7431 21.7452C21.4008 22.086 20.8468 22.0843 20.5058 21.7422L15.8906 17.1075L15.6865 17.3116L15.6757 17.3213C14.6939 18.2381 13.7089 19.0829 12.7587 19.794C11.8516 20.4727 10.7365 20.4194 9.88469 19.9815C9.03467 19.5442 8.34185 18.678 8.24504 17.5743L7.95989 14.335L5.00383 11.3809C4.8596 11.5739 4.72075 11.7645 4.58684 11.9522C4.3062 12.3454 3.76044 12.4367 3.36711 12.1563C2.97371 11.8757 2.88236 11.329 3.16301 10.9356C4.0982 9.62473 5.26906 8.18209 6.72551 6.72564C7.86044 5.59071 9.2532 4.3617 10.9365 3.16216ZM10.0019 6.09771C9.24246 6.73399 8.56399 7.36177 7.96282 7.96295C7.27596 8.6498 6.65552 9.33317 6.09661 10.0001L9.42278 13.3243L9.64836 13.5489L9.67668 13.8663L9.98821 17.421C10.0264 17.8567 10.3048 18.229 10.6855 18.4249C11.0646 18.6198 11.441 18.5944 11.7099 18.3936C12.5922 17.7333 13.5234 16.9348 14.4697 16.0518L16.0615 14.4678C16.81 13.6689 17.5802 12.7944 18.3661 11.7471C18.5786 11.4632 18.6054 11.0698 18.4159 10.6856C18.2265 10.3017 17.8624 10.0228 17.4247 9.98443L13.8691 9.67193L13.5527 9.64459L13.3271 9.41998L10.0019 6.09771Z" fill="black"/>
</svg>

<!-- This Source Code Form is subject to the terms of the Mozilla Public
   - License, v. 2.0. If a copy of the MPL was not distributed with this
   - file, You can obtain one at http://mozilla.org/MPL/2.0/. -->
<svg xmlns="http://www.w3.org/2000/svg" width="24" height="24" fill="none" viewBox="0 0 24 24">
    <path fill="#000" fill-rule="evenodd" d="M10.937 3.162a.875.875 0 0 1 1.015 1.426q-.291.207-.57.415l2.957 2.953 3.238.285.206.026c1.019.161 1.803.833 2.203 1.644s.452 1.844-.101 2.715l-.12.172a34 34 0 0 1-2.438 2.879l-.01.011-.011.011-.175.174 4.614 4.635a.876.876 0 0 1-1.24 1.234l-4.614-4.634-.204.204-.011.01a36 36 0 0 1-2.917 2.472c-.907.679-2.023.625-2.874.188-.85-.438-1.543-1.304-1.64-2.408l-.285-3.239-2.956-2.954q-.216.29-.417.571a.875.875 0 1 1-1.424-1.016 33.3 33.3 0 0 1 7.774-7.774m-.935 2.936A31.4 31.4 0 0 0 6.097 10l3.326 3.324.225.225.029.317.311 3.555c.038.436.317.808.697 1.004s.756.17 1.025-.031a34 34 0 0 0 2.76-2.342l1.591-1.584a32 32 0 0 0 2.305-2.72c.213-.285.24-.678.05-1.062a1.24 1.24 0 0 0-.991-.702l-3.556-.312-.316-.027-.226-.225z" clip-rule="evenodd" />
</svg>
